X:465
T:Link Him Doddie
R:Strathspey
B:The Athole Collection
M:C|
L:1/8
K:A
A<e e>d c<A c2|B<=g g>d B<=GB<d|A/B/c/d/ e>A c<A c2|A,ag<b a>A c<e:|
a/g/f/e/ c>a e>a c2|(B<=g g>d B<=GB<^g|a/g/f/e/ c<a e<ac<a|A<ac<a c<Ac<e|
a/g/f/e/ f>d e>d c2|(B<=g g>d B<=GB<d|A/B/cd e>A c>A c2|(A<a g<b a<Ac<e||

